X:163
T:Reel du Bonhomme
Z:robin.beech@mcgill.ca
M:4/4
L:1/8
K:D
e3c A2ec | efec A2ef | e2d2 c2B2 | B2A2 A4 ::
A3A B2AG | FAdf a3f | g3e cABc | dAdf bafd |
A3A B2AG | FAdf a3f | g3e cABc | dfec d4 ::
d2c2 B2A2 | F3F F2ED | CEA,C EGFE | DFA,D F2Bc |
d2c2 B2A2 | F3F F2ED | CEA,C EGFE | DDFA d4 :|
